X: 8
T: 1. Shiftin' Bobbins
C: Muriel Rimmer
R: reel, polka
B: Ormskirk Scottish Dances, Book 6
B: The Kinpurnie Collection, Sidlaw Music, in A
Z: 1997 by John Chambers <jc@trillian.mit.edu>
M: C|
L: 1/8
K: A
e2 |:\
"A" ^deee  f2e2 | ^d2e2   c2A2 | EEEE A2c2    | "Bm" c2d2      d4  |
|1 \
"E7" ^deee f2e2 |  g2f2   e2f2 | gfed c2B2    | "A"  A2F2 "E7" E4 :|
|2 \
"E7" cddd ^A2B2 | ^^F2G2 ^D2E2 | EFGA c2B2    | "A"  A8           ||
|: \
"A"  EEEE  F2E2 | ^D2E2   F2E2 | EEEE A2c2    | "Bm" ^A2B2     B4  |
|1 \
"E7" GGGG  A2G2 | ^^F2G2 ^D2E2 | G3F  E2^D2   | "A"  F2E2      C4 :|
|2 \
"E"  cddd ^A2B2 | ^^F2G2 ^D2E2 | EF^^FG c2B2  | "A"  A4           ||
